Hatter-kde-dark/actions/16/foreign_red.svg

<?xml version="1.0" encoding="UTF-8"?>
<svg viewBox="0 0 16 16" xmlns="http://www.w3.org/2000/svg">
 <defs id="defs3051">
  <style id="current-color-scheme" type="text/css">.ColorScheme-Text {
        color:#dedede;
      }
      .ColorScheme-Highlight {
        color:#3daee9;
      }
      .ColorScheme-NegativeText {
        color:#da4453;
      }</style>
 </defs>
 <path class="ColorScheme-Text" d="m5 2c-0.552 0-1 0.448-1 1v2h-2v3h1v-2h10v2h1v-3h-2v-2c0-0.552-0.448-1-1-1h-6zm0 1h6v2h-6v-2zm-0.99609 6a1 1 0 0 0-1 1 1 1 0 0 0 1 1 1 1 0 0 0 1-1 1 1 0 0 0-1-1zm-1.3203 3a2 2 0 0 0-0.67969 1.5v0.5h4v-0.5a2 2 0 0 0-0.67969-1.5h-2.6406z" fill="currentColor"/>
 <path class="ColorScheme-NegativeText" d="m11 8c-1.662 0-3 1.338-3 3s1.338 3 3 3 3-1.338 3-3-1.338-3-3-3m0 1c1.108 0 2 0.892 2 2s-0.892 2-2 2-2-0.892-2-2 0.892-2 2-2m-1 1v2h2v-1h-1v-1z" fill="currentColor"/>
</svg>

<svg xmlns="http://www.w3.org/2000/svg" viewBox="0 0 16 16">
  <defs id="defs3051">
    <style type="text/css" id="current-color-scheme">
      .ColorScheme-Text {
        color:#dedede;
      }
      .ColorScheme-Highlight {
        color:#3daee9;
      }
      .ColorScheme-NegativeText {
        color:#da4453;
      }
      </style>
  </defs>
  <path 
        style="fill:currentColor;fill-opacity:1;stroke:none"
        d="M 5 2 C 4.448 2 4 2.448 4 3 L 4 5 L 2 5 L 2 8 L 3 8 L 3 6 L 13 6 L 13 8 L 14 8 L 14 5 L 12 5 L 12 3 C 12 2.448 11.552 2 11 2 L 5 2 z M 5 3 L 11 3 L 11 5 L 5 5 L 5 3 z M 4.0039062 9 A 1 1 0 0 0 3.0039062 10 A 1 1 0 0 0 4.0039062 11 A 1 1 0 0 0 5.0039062 10 A 1 1 0 0 0 4.0039062 9 z M 2.6835938 12 A 2 2 0 0 0 2.0039062 13.5 L 2.0039062 14 L 6.0039062 14 L 6.0039062 13.5 A 2 2 0 0 0 5.3242188 12 L 2.6835938 12 z "
        class="ColorScheme-Text"
        />
  <path
      style="fill:currentColor;fill-opacity:1;stroke:none" 
     class="ColorScheme-NegativeText"
    d="m 11,8 c -1.662,0 -3,1.338 -3,3 0,1.662 1.338,3 3,3 1.662,0 3,-1.338 3,-3 0,-1.662 -1.338,-3 -3,-3 m 0,1 c 1.108,0 2,0.892 2,2 0,1.108 -0.892,2 -2,2 C 9.892,13 9,12.108 9,11 9,9.892 9.892,9 11,9 m -1,1 0,2 2,0 0,-1 -1,0 0,-1 z" />
</svg>
